build/assets/img/svg/icon-viber.svg

<svg width="24" height="24" viewBox="0 0 24 24" fill="none" xmlns="http://www.w3.org/2000/svg">
<rect width="24" height="24" rx="6" fill="#834995"/>
<path d="M19.3445 3.94745C18.8485 3.49054 16.8409 2.03363 12.3649 2.01415C12.3649 2.01415 7.08824 1.6978 4.51824 4.05689C3.08871 5.48632 2.58489 7.58376 2.53019 10.1811C2.4755 12.7785 2.40911 17.6449 7.09993 18.9651H7.1038L7.09993 20.9805C7.09993 20.9805 7.06872 21.7968 7.60767 21.9608C8.25606 22.164 8.6388 21.543 9.2598 20.8751C9.59963 20.5079 10.0683 19.9689 10.4237 19.5588C13.6342 19.8283 16.0988 19.2112 16.38 19.1214C17.0284 18.9105 20.6959 18.4418 21.2895 13.5752C21.9066 8.55236 20.9927 5.38089 19.3445 3.94745Z" fill="white"/>
<path d="M19.8878 13.2081C19.3839 17.27 16.4116 17.5278 15.8648 17.7036C15.6305 17.7778 13.4628 18.3168 10.7405 18.1411C10.7405 18.1411 8.70945 20.5899 8.07671 21.2266C7.86971 21.4336 7.64319 21.4141 7.6471 21.0039C7.6471 20.7346 7.66271 17.6568 7.66271 17.6568C7.6588 17.6568 7.6588 17.6568 7.66271 17.6568C3.68662 16.5553 3.92097 12.4113 3.96393 10.2436C4.00689 8.07595 4.41702 6.29882 5.6278 5.10369C7.80332 3.13125 12.2832 3.42421 12.2832 3.42421C16.0679 3.43982 17.8802 4.58025 18.302 4.96304C19.6963 6.15821 20.4072 9.01725 19.8878 13.2081Z" fill="#834995"/>
<path d="M14.459 10.0521C14.4746 10.3879 13.9708 10.4114 13.9552 10.0755C13.9122 9.21619 13.5099 8.79832 12.6819 8.75145C12.3459 8.73189 12.3772 8.22806 12.7092 8.24763C13.7989 8.30619 14.4043 8.9311 14.459 10.0521Z" fill="white"/>
<path d="M15.2513 10.4935C15.2903 8.83747 14.2554 7.54077 12.2907 7.39629C11.9587 7.37286 11.9939 6.86899 12.3259 6.89242C14.5913 7.05651 15.7981 8.6149 15.7551 10.5052C15.7512 10.8411 15.2434 10.8256 15.2513 10.4935Z" fill="white"/>
<path d="M17.0873 11.017C17.0911 11.3529 16.5834 11.3567 16.5834 11.0209C16.56 7.83769 14.4392 6.10352 11.8652 6.084C11.5332 6.08008 11.5332 5.58017 11.8652 5.58017C14.7438 5.59969 17.0599 7.58769 17.0873 11.017Z" fill="white"/>
<path d="M16.6463 14.8483V14.8562C16.2245 15.5983 15.4355 16.4186 14.6231 16.1569L14.6153 16.1451C13.7911 15.9147 11.8501 14.9148 10.6236 13.9383C9.99089 13.4384 9.4128 12.8486 8.96754 12.2823C8.56528 11.7784 8.15911 11.1808 7.76463 10.4622C6.93271 8.95847 6.74915 8.28669 6.74915 8.28669C6.48745 7.47429 7.30376 6.68529 8.04971 6.26351H8.05758C8.41689 6.07599 8.76058 6.13851 8.99102 6.41577C8.99102 6.41577 9.47537 6.99377 9.68232 7.27899C9.87763 7.54456 10.1393 7.97025 10.276 8.20851C10.5143 8.63421 10.3658 9.06777 10.1315 9.24738L9.6628 9.62238C9.42458 9.81373 9.4558 10.1692 9.4558 10.1692C9.4558 10.1692 10.151 12.7978 12.7484 13.4618C12.7484 13.4618 13.1038 13.493 13.2951 13.2548L13.6701 12.7861C13.8498 12.5517 14.2834 12.4033 14.7091 12.6416C15.2832 12.9657 16.0136 13.4696 16.4979 13.9266C16.7713 14.1492 16.8338 14.4891 16.6463 14.8483Z" fill="white"/>
</svg>

<svg width="24" height="24" fill="none" xmlns="http://www.w3.org/2000/svg"><rect width="24" height="24" rx="6" fill="#834995"/><path d="M19.345 3.947c-.496-.456-2.504-1.913-6.98-1.933 0 0-5.277-.316-7.847 2.043-1.43 1.43-1.933 3.527-1.988 6.124-.054 2.598-.12 7.464 4.57 8.784h.004L7.1 20.98s-.031.817.508.98c.648.204 1.03-.417 1.652-1.085.34-.367.808-.906 1.164-1.316 3.21.27 5.675-.348 5.956-.438.648-.21 4.316-.68 4.91-5.546.617-5.023-.297-8.194-1.945-9.628z" fill="#fff"/><path d="M19.888 13.208c-.504 4.062-3.476 4.32-4.023 4.496-.235.074-2.402.613-5.124.437 0 0-2.032 2.449-2.664 3.086-.207.207-.434.187-.43-.223 0-.27.016-3.347.016-3.347-.004 0-.004 0 0 0-3.976-1.102-3.742-5.246-3.7-7.413.044-2.168.454-3.945 1.665-5.14 2.175-1.973 6.655-1.68 6.655-1.68 3.785.016 5.597 1.156 6.019 1.539 1.394 1.195 2.105 4.054 1.586 8.245z" fill="#834995"/><path d="M14.459 10.052c.016.336-.488.36-.504.024-.043-.86-.445-1.278-1.273-1.325-.336-.02-.305-.523.027-.503 1.09.058 1.695.683 1.75 1.804z" fill="#fff"/><path d="M15.251 10.493c.04-1.656-.996-2.952-2.96-3.097-.332-.023-.297-.527.035-.504 2.265.165 3.472 1.723 3.43 3.613-.005.336-.513.32-.505-.012z" fill="#fff"/><path d="M17.087 11.017c.004.336-.504.34-.504.004-.023-3.183-2.144-4.917-4.718-4.937-.332-.004-.332-.504 0-.504 2.879.02 5.195 2.008 5.222 5.437zm-.441 3.831v.008c-.422.742-1.21 1.563-2.023 1.3l-.008-.01c-.824-.231-2.765-1.231-3.991-2.208-.633-.5-1.211-1.09-1.656-1.656a12.684 12.684 0 01-1.203-1.82c-.832-1.504-1.016-2.175-1.016-2.175-.262-.813.555-1.602 1.3-2.023h.009c.359-.188.703-.125.933.152 0 0 .484.578.691.863.196.266.457.691.594.93.238.425.09.859-.144 1.038l-.47.375c-.237.192-.206.547-.206.547s.695 2.629 3.292 3.293c0 0 .356.031.547-.207l.375-.469c.18-.234.613-.383 1.04-.144.573.324 1.304.828 1.788 1.285.273.222.336.562.148.921z" fill="#fff"/></svg>
